icons/mimetypes/16/text-x-qml.svg

<svg width="16" xmlns="http://www.w3.org/2000/svg" height="16" viewBox="0 0 16 16">
 <path fill="#52a743" d="m3 3c-.554 0-1 .446-1 1v8c0 .554.446 1 1 1h10c.554 0 1-.446 1-1v-8c0-.554-.446-1-1-1zm5.5 1c.277 0 .5.223.5.5 0 .277-.223.5-.5.5-.277 0-.5-.223-.5-.5 0-.277.223-.5.5-.5m2 0c.277 0 .5.223.5.5 0 .277-.223.5-.5.5-.277 0-.5-.223-.5-.5 0-.277.223-.5.5-.5m2 0c.277 0 .5.223.5.5 0 .277-.223.5-.5.5-.277 0-.5-.223-.5-.5 0-.277.223-.5.5-.5m-9.5 2h10v6h-10z"/>
</svg>

<?xml version="1.0" encoding="UTF-8" standalone="no"?>
<!-- Created with Inkscape (http://www.inkscape.org/) -->

<svg
   xmlns:dc="http://purl.org/dc/elements/1.1/"
   xmlns:cc="http://creativecommons.org/ns#"
   xmlns:rdf="http://www.w3.org/1999/02/22-rdf-syntax-ns#"
   xmlns:svg="http://www.w3.org/2000/svg"
   xmlns="http://www.w3.org/2000/svg"
   xmlns:sodipodi="http://sodipodi.sourceforge.net/DTD/sodipodi-0.dtd"
   xmlns:inkscape="http://www.inkscape.org/namespaces/inkscape"
   width="16"
   version="1.1"
   height="16"
   viewBox="0 0 16 16"
   id="svg2"
   inkscape:version="0.91 r13725"
   sodipodi:docname="text-x-qml.svg">
  <sodipodi:namedview
     pagecolor="#ffffff"
     bordercolor="#666666"
     borderopacity="1"
     objecttolerance="10"
     gridtolerance="10"
     guidetolerance="10"
     inkscape:pageopacity="0"
     inkscape:pageshadow="2"
     inkscape:window-width="1920"
     inkscape:window-height="1023"
     id="namedview7"
     showgrid="true"
     inkscape:zoom="33.889477"
     inkscape:cx="6.6538875"
     inkscape:cy="9.8145789"
     inkscape:window-x="0"
     inkscape:window-y="28"
     inkscape:window-maximized="1"
     inkscape:current-layer="svg2"
     inkscape:object-nodes="true">
    <inkscape:grid
       type="xygrid"
       id="grid4135" />
  </sodipodi:namedview>
  <defs
     id="defs4" />
  <metadata
     id="metadata7">
    <rdf:RDF>
      <cc:Work
         rdf:about="">
        <dc:format>image/svg+xml</dc:format>
        <dc:type
           rdf:resource="http://purl.org/dc/dcmitype/StillImage" />
      </cc:Work>
    </rdf:RDF>
  </metadata>
  <path
     style="fill:#16907d;fill-opacity:1;stroke:none;stroke-width:2;stroke-miterlimit:4;stroke-dasharray:none;stroke-opacity:1"
     d="M 3 3 C 2.446 3 2 3.446 2 4 L 2 12 C 2 12.554 2.446 13 3 13 L 13 13 C 13.554 13 14 12.554 14 12 L 14 4 C 14 3.446 13.554 3 13 3 L 3 3 z M 8.5 4 C 8.777 4 9 4.223 9 4.5 C 9 4.777 8.777 5 8.5 5 C 8.223 5 8 4.777 8 4.5 C 8 4.223 8.223 4 8.5 4 z M 10.5 4 C 10.777 4 11 4.223 11 4.5 C 11 4.777 10.777 5 10.5 5 C 10.223 5 10 4.777 10 4.5 C 10 4.223 10.223 4 10.5 4 z M 12.5 4 C 12.777 4 13 4.223 13 4.5 C 13 4.777 12.777 5 12.5 5 C 12.223 5 12 4.777 12 4.5 C 12 4.223 12.223 4 12.5 4 z M 3 6 L 13 6 L 13 12 L 3 12 L 3 6 z "
     id="rect4136" />
</svg>
